X: 1
T: Marche de Noces \`a Gatignol
R: march
S: Qu\'ebec City workshop, from Betsy Hooper
M: 2/4
L: 1/8
K: Gmix
|:\
(3GFG Ad | cB AG |\
(3GFG Ad | cB HA2 :|\
(3ABc dc | BA G>A |
Bc BG | B2 HA2 |\
(3ABc dc | BA G>A |\
Bc BG | A2 HG2 |]
